X:248
T:Ferry Bridge Hornpipe. Le4.248
L:1/8
B:L.Leadley MS#4 c1850
Z:vmp.Mike Hicken 2016 www.village-music-project.org.uk
N: This is tune 27 of The Fiddler of Helperby.
N: * This note is a quaver in the original.
N: ** This note is unclear. It could be f or g.
M:C|
Q:1/4=120
K:D
(AG)|(FE)FG FAdA|GFED CEAG|FAdf gfdf|edcB AGFE|
(FE).F.G FAdA|(GF).E.D CEAG|FAdA BGEC|D2D2D2 :|
|: "*"d2|(cd).e.f gecA| (de).fg afdf|(gf).e."**"g (fe).d.f|(Aa)aa a2 AG|
FEFG FAdA|GFED CEAG|FAdA BGEC|D2D2D2 :|

